; generated by Slic3r 0.9.7 on 2012-12-28 at 17:42:43

; layer_height = 0.2
; perimeters = 3
; top_solid_layers = 3
; bottom_solid_layers = 3
; fill_density = 0.4
; perimeter_speed = 30
; infill_speed = 60
; travel_speed = 130
; scale = 1
; nozzle_diameter = 0.35
; filament_diameter = 1.75
; extrusion_multiplier = 1
; perimeters extrusion width = 0.49mm
; infill extrusion width = 0.49mm
; support material extrusion width = 0.49mm
; first layer extrusion width = 0.40mm

G28 ; home all axes
G90 ; use absolute coordinates
G21 ; set units to millimeters
G92 E0
M82 ; use absolute distances for extrusion
G1 F900.000 E-3.00000
G1 Z0.500
G92 E0
G1 X76.900 Y56.490 F7800.000
G1 Z0.200
G1 F900.000 E3.00000
G1 X77.220 Y56.070 F540.000 E3.01709
G1 X77.770 Y55.500 E3.04273
G1 X77.970 Y55.320 E3.05144
G1 X78.390 Y55.000 E3.06853
G1 X78.830 Y54.710 E3.08559
G1 X79.290 Y54.460 E3.10253
G1 X80.030 Y54.160 E3.12838
G1 X80.790 Y53.950 E3.15390
G1 X81.570 Y53.830 E3.17944
G1 X82.100 Y53.810 E3.19661
G1 X100.900 Y53.810 E3.80513
G1 X101.440 Y53.830 E3.82262
G1 X102.240 Y53.950 E3.84880
G1 X103.020 Y54.170 E3.87503
G1 X103.520 Y54.370 E3.89246
G1 X104.240 Y54.750 E3.91882
G1 X104.690 Y55.060 E3.93650
G1 X105.110 Y55.390 E3.95379
G1 X105.690 Y55.970 E3.98034
G1 X106.030 Y56.390 E3.99783
G1 X123.180 Y81.610 E4.98501
G1 X123.600 Y82.310 E5.01144
G1 X123.720 Y82.560 E5.02041
G1 X124.010 Y83.320 E5.04674
G1 X124.200 Y84.120 E5.07336
G1 X124.240 Y84.380 E5.08187
G1 X124.270 Y84.660 E5.09099
G1 X124.290 Y85.200 E5.10848
G1 X124.290 Y114.800 E6.06657
G1 X124.270 Y115.340 E6.08406
G1 X124.240 Y115.620 E6.09317
G1 X124.200 Y115.880 E6.10169
G1 X124.010 Y116.680 E6.12830
G1 X123.720 Y117.440 E6.15463
G1 X123.600 Y117.690 E6.16361
G1 X123.180 Y118.390 E6.19003
G1 X106.030 Y143.610 E7.17721
G1 X105.690 Y144.030 E7.19470
G1 X105.110 Y144.610 E7.22125
G1 X104.470 Y145.100 E7.24734
G1 X104.010 Y145.380 E7.26477
G1 X103.520 Y145.630 E7.28258
G1 X102.770 Y145.910 E7.30849
G1 X102.240 Y146.050 E7.32623
G1 X101.440 Y146.170 E7.35242
G1 X100.900 Y146.190 E7.36991
G1 X82.100 Y146.190 E7.97842
G1 X81.570 Y146.170 E7.99559
G1 X81.050 Y146.100 E8.01257
G1 X80.530 Y145.990 E8.02978
G1 X80.030 Y145.840 E8.04667
G1 X79.530 Y145.650 E8.06399
G1 X78.830 Y145.290 E8.08947
G1 X78.390 Y145.000 E8.10652
G1 X77.970 Y144.680 E8.12361
G1 X77.580 Y144.320 E8.14079
G1 X77.220 Y143.930 E8.15797
G1 X76.750 Y143.290 E8.18367
G1 X76.360 Y142.610 E8.20905
G1 X76.060 Y141.870 E8.23489
G1 X75.910 Y141.370 E8.25179
G1 X75.800 Y140.850 E8.26899
G1 X75.730 Y140.330 E8.28598
G1 X75.710 Y139.800 E8.30314
G1 X75.710 Y60.200 E10.87963
G1 X75.730 Y59.670 E10.89680
G1 X75.760 Y59.410 E10.90527
G1 X75.850 Y58.890 E10.92235
G1 X75.980 Y58.380 E10.93939
G1 X76.150 Y57.880 E10.95648
G1 X76.360 Y57.390 E10.97373
G1 X76.610 Y56.930 E10.99068
G1 X76.867 Y56.538 E11.00585
G1 X76.900 Y56.490 E11.00774
G1 X102.197 Y88.877 F7800.000
G1 X102.197 Y86.180 F1080.000 E11.09503
G1 X102.197 Y95.198 F7800.000
G1 X102.197 Y91.102 F1080.000 E11.22761
G1 X106.197 Y96.835 F7800.000
G1 X106.197 Y91.994 F1080.000 E11.38432
G1 X110.197 Y96.567 F7800.000
G1 X110.197 Y102.993 F1080.000 E11.59232
G1 X106.197 Y107.584 F7800.000
G1 X106.197 Y102.646 F1080.000 E11.75216
G1 X102.197 Y109.146 F7800.000
G1 X102.197 Y109.049 F1080.000 E11.75528
G1 X102.197 Y109.146 F7800.000
G1 X102.197 Y104.924 F1080.000 E11.89194
G1 X98.197 Y102.555 F7800.000
G1 X98.197 Y107.443 F1080.000 E12.05013
G1 X102.197 Y113.877 F7800.000
G1 X102.197 Y111.180 F1080.000 E12.13743
G1 X94.197 Y102.473 F7800.000
G1 X94.197 Y97.374 F1080.000 E12.30247
G1 X98.197 Y92.513 F7800.000
G1 X98.197 Y97.819 F1080.000 E12.47422
G1 F900.000 E9.47422
G1 Z0.500
G92 E0
G1 X93.282 Y94.346 F7800.000
G1 Z0.200
G1 F900.000 E3.00000
G1 X93.353 Y94.197 F540.000 E3.00534
G1 X95.167 Y92.078 E3.09564
G1 X97.468 Y90.500 E3.18595
G1 X100.135 Y89.560 E3.27746
G1 X99.722 Y89.022 E3.29941
G1 X99.424 Y88.301 E3.32465
G1 X99.322 Y87.528 E3.34989
G1 X99.424 Y86.755 E3.37513
G1 X99.722 Y86.035 E3.40037
G1 X100.197 Y85.416 E3.42561
G1 X100.815 Y84.941 E3.45085
G1 X101.536 Y84.643 E3.47608
G1 X102.309 Y84.541 E3.50132
G1 X103.082 Y84.643 E3.52656
G1 X103.802 Y84.941 E3.55180
G1 X104.421 Y85.416 E3.57704
G1 X104.896 Y86.035 E3.60228
G1 X105.194 Y86.755 E3.62752
G1 X105.296 Y87.528 E3.65276
G1 X105.194 Y88.301 E3.67800
G1 X104.896 Y89.022 E3.70324
G1 X104.419 Y89.643 E3.72860
G1 X105.623 Y89.868 E3.76827
G1 X108.140 Y91.072 E3.85858
G1 X110.259 Y92.887 E3.94888
G1 X111.837 Y95.188 E4.03918
G1 X112.765 Y97.819 E4.12948
G1 X112.980 Y100.600 E4.21979
G1 X112.469 Y103.343 E4.31009
G1 X111.265 Y105.859 E4.40039
G1 X109.450 Y107.979 E4.49069
G1 X107.149 Y109.556 E4.58099
G1 X104.483 Y110.497 E4.67251
G1 X104.896 Y111.035 E4.69446
G1 X105.194 Y111.755 E4.71970
G1 X105.296 Y112.528 E4.74494
G1 X105.194 Y113.301 E4.77018
G1 X104.896 Y114.022 E4.79541
G1 X104.421 Y114.640 E4.82065
G1 X103.802 Y115.115 E4.84589
G1 X103.082 Y115.413 E4.87113
G1 X102.309 Y115.515 E4.89637
G1 X101.536 Y115.413 E4.92161
G1 X100.815 Y115.115 E4.94685
G1 X100.197 Y114.640 E4.97209
G1 X99.722 Y114.022 E4.99733
G1 X99.424 Y113.301 E5.02257
G1 X99.322 Y112.528 E5.04781
G1 X99.424 Y111.755 E5.07305
G1 X99.722 Y111.035 E5.09828
G1 X100.199 Y110.413 E5.12365
G1 X98.994 Y110.188 E5.16332
G1 X96.478 Y108.984 E5.25362
G1 X94.358 Y107.170 E5.34393
G1 X92.781 Y104.869 E5.43423
G1 X91.853 Y102.238 E5.52453
G1 X91.637 Y99.456 E5.61483
G1 X92.149 Y96.714 E5.70514
G1 X93.256 Y94.398 E5.78821
G1 X93.282 Y94.346 E5.79010
G1 X93.633 Y94.514 F7800.000
G1 X93.682 Y94.411 F540.000 E5.79378
G1 X95.430 Y92.370 E5.88076
G1 X97.646 Y90.850 E5.96775
G1 X100.180 Y89.956 E6.05473
G1 X101.150 Y89.881 E6.08620
G1 X100.474 Y89.363 E6.11377
G1 X100.062 Y88.825 E6.13569
G1 X99.803 Y88.200 E6.15761
G1 X99.714 Y87.528 E6.17954
G1 X99.803 Y86.857 E6.20146
G1 X100.062 Y86.231 E6.22338
G1 X100.474 Y85.694 E6.24530
G1 X101.012 Y85.281 E6.26722
G1 X101.637 Y85.022 E6.28914
G1 X102.309 Y84.934 E6.31106
G1 X102.980 Y85.022 E6.33299
G1 X103.606 Y85.281 E6.35491
G1 X104.143 Y85.694 E6.37683
G1 X104.556 Y86.231 E6.39875
G1 X104.815 Y86.857 E6.42067
G1 X104.903 Y87.528 E6.44259
G1 X104.815 Y88.200 E6.46452
G1 X104.556 Y88.825 E6.48644
G1 X104.143 Y89.363 E6.50836
G1 X103.488 Y89.866 E6.53511
G1 X105.502 Y90.241 E6.60142
G1 X107.926 Y91.401 E6.68840
G1 X109.967 Y93.149 E6.77539
G1 X111.487 Y95.366 E6.86237
G1 X112.381 Y97.900 E6.94936
G1 X112.588 Y100.579 E7.03634
G1 X112.095 Y103.221 E7.12332
G1 X110.936 Y105.645 E7.21031
G1 X109.188 Y107.687 E7.29729
G1 X106.971 Y109.206 E7.38428
G1 X104.437 Y110.100 E7.47126
G1 X103.468 Y110.175 E7.50274
G1 X104.143 Y110.694 E7.53030
G1 X104.556 Y111.231 E7.55222
G1 X104.815 Y111.857 E7.57414
G1 X104.903 Y112.528 E7.59607
G1 X104.815 Y113.200 E7.61799
G1 X104.556 Y113.825 E7.63991
G1 X104.143 Y114.363 E7.66183
G1 X103.606 Y114.775 E7.68375
G1 X102.980 Y115.034 E7.70567
G1 X102.309 Y115.123 E7.72760
G1 X101.637 Y115.034 E7.74952
G1 X101.012 Y114.775 E7.77144
G1 X100.474 Y114.363 E7.79336
G1 X100.062 Y113.825 E7.81528
G1 X99.803 Y113.200 E7.83720
G1 X99.714 Y112.528 E7.85912
G1 X99.803 Y111.857 E7.88105
G1 X100.062 Y111.231 E7.90297
G1 X100.474 Y110.694 E7.92489
G1 X101.130 Y110.191 E7.95164
G1 X99.116 Y109.815 E8.01795
G1 X96.692 Y108.655 E8.10493
G1 X94.650 Y106.907 E8.19192
G1 X93.131 Y104.691 E8.27890
G1 X92.237 Y102.156 E8.36589
G1 X92.029 Y99.477 E8.45287
G1 X92.522 Y96.835 E8.53986
G1 X93.608 Y94.566 E8.62127
G1 X93.633 Y94.514 E8.62316
G1 F900.000 E5.62316
G1 Z0.500
G92 E0
G1 X100.752 Y89.085 F7800.000
G1 Z0.200
G1 F900.000 E3.00000
G1 X100.402 Y88.629 F540.000 E3.01860
G1 X100.182 Y88.098 E3.03721
G1 X100.107 Y87.528 E3.05581
G1 X100.182 Y86.958 E3.07442
G1 X100.402 Y86.427 E3.09302
G1 X100.752 Y85.971 E3.11162
G1 X101.208 Y85.621 E3.13023
G1 X101.739 Y85.401 E3.14883
G1 X102.309 Y85.326 E3.16744
G1 X102.879 Y85.401 E3.18604
G1 X103.410 Y85.621 E3.20464
G1 X103.866 Y85.971 E3.22325
G1 X104.216 Y86.427 E3.24185
G1 X104.435 Y86.958 E3.26046
G1 X104.511 Y87.528 E3.27906
G1 X104.435 Y88.098 E3.29766
G1 X104.216 Y88.629 E3.31627
G1 X103.866 Y89.085 E3.33487
G1 X103.410 Y89.435 E3.35348
G1 X102.879 Y89.655 E3.37208
G1 X102.309 Y89.730 E3.39068
G1 X101.739 Y89.655 E3.40929
G1 X101.208 Y89.435 E3.42789
G1 X100.798 Y89.121 E3.44461
G1 X100.752 Y89.085 E3.44650
G1 X100.262 Y90.340 F7800.000
G1 X102.839 Y90.141 F540.000 E3.53016
G1 X105.380 Y90.615 E3.61383
G1 X107.712 Y91.730 E3.69750
G1 X109.675 Y93.411 E3.78116
G1 X111.137 Y95.543 E3.86483
G1 X111.997 Y97.981 E3.94850
G1 X112.196 Y100.558 E4.03216
G1 X111.722 Y103.099 E4.11583
G1 X110.607 Y105.431 E4.19950
G1 X108.926 Y107.394 E4.28316
G1 X106.794 Y108.856 E4.36683
G1 X106.735 Y108.877 E4.36885
G1 X104.356 Y109.716 E4.45050
G1 X101.779 Y109.916 E4.53416
G1 X99.238 Y109.442 E4.61783
G1 X96.906 Y108.326 E4.70150
G1 X94.942 Y106.645 E4.78516
G1 X93.481 Y104.513 E4.86883
G1 X92.621 Y102.075 E4.95250
G1 X92.421 Y99.498 E5.03617
G1 X92.884 Y97.019 E5.11781
G1 X92.895 Y96.957 E5.11983
G1 X94.011 Y94.625 E5.20350
G1 X95.692 Y92.662 E5.28717
G1 X97.824 Y91.200 E5.37083
G1 X100.207 Y90.360 E5.45261
G1 X100.262 Y90.340 E5.45450
G1 X100.644 Y90.412 F7800.000
G1 F900.000 E2.45450
G1 Z0.500
G92 E0
G1 X102.309 Y110.326 F7800.000
G1 Z0.200
G1 F900.000 E3.00000
G1 X102.879 Y110.401 F540.000 E3.01860
G1 X103.410 Y110.621 E3.03721
G1 X103.866 Y110.971 E3.05581
G1 X104.216 Y111.427 E3.07442
G1 X104.435 Y111.958 E3.09302
G1 X104.511 Y112.528 E3.11162
G1 X104.435 Y113.098 E3.13023
G1 X104.216 Y113.629 E3.14883
G1 X103.866 Y114.085 E3.16744
G1 X103.410 Y114.435 E3.18604
G1 X102.879 Y114.655 E3.20464
G1 X102.309 Y114.730 E3.22325
G1 X101.739 Y114.655 E3.24185
G1 X101.208 Y114.435 E3.26046
G1 X100.752 Y114.085 E3.27906
G1 X100.402 Y113.629 E3.29766
G1 X100.182 Y113.098 E3.31627
G1 X100.107 Y112.528 E3.33487
G1 X100.182 Y111.958 E3.35348
G1 X100.402 Y111.427 E3.37208
G1 X100.752 Y110.971 E3.39068
G1 X101.208 Y110.621 E3.40929
G1 X101.739 Y110.401 E3.42789
G1 X102.251 Y110.334 E3.44461
G1 X102.309 Y110.326 E3.44650
G1 F900.000 E0.44650
G1 Z0.500
G92 E0
G1 X107.516 Y114.021 F7800.000
G1 Z0.200
G1 F900.000 E3.00000
G1 X100.121 Y127.753 F540.000 E3.50481
G1 X100.121 Y139.021 E3.86954
G1 X82.879 Y139.021 E4.42766
G1 X82.879 Y60.979 E6.95374
G1 X100.121 Y60.979 E7.51186
G1 X100.121 Y72.247 E7.87659
G1 X107.516 Y85.979 E8.38140
G1 X117.121 Y85.979 E8.69232
G1 X117.121 Y114.021 E9.60001
G1 X107.574 Y114.021 E9.90905
G1 X107.516 Y114.021 E9.91094
G1 X107.748 Y114.411 F7800.000
G1 X100.511 Y127.851 F540.000 E10.40505
G1 X100.511 Y139.411 E10.77920
G1 X82.489 Y139.411 E11.36251
G1 X82.489 Y60.589 E13.91380
G1 X100.511 Y60.589 E14.49712
G1 X100.511 Y72.149 E14.87127
G1 X107.748 Y85.589 E15.36538
G1 X117.511 Y85.589 E15.68137
G1 X117.511 Y114.411 E16.61426
G1 X107.806 Y114.411 E16.92837
G1 X107.748 Y114.411 E16.93026
G1 X107.981 Y114.800 F7800.000
G1 X100.900 Y127.950 F540.000 E17.41367
G1 X100.900 Y139.800 E17.79724
G1 X82.100 Y139.800 E18.40576
G1 X82.100 Y60.200 E20.98225
G1 X100.900 Y60.200 E21.59076
G1 X100.900 Y72.050 E21.97434
G1 X107.981 Y85.200 E22.45774
G1 X117.900 Y85.200 E22.77881
G1 X117.900 Y114.800 E23.73691
G1 X108.039 Y114.800 E24.05609
G1 X107.981 Y114.800 E24.05798
G1 X107.643 Y114.605 F7800.000
G1 F900.000 E21.05798
G1 Z0.500
G92 E0
G1 X99.069 Y112.531 F7800.000
G1 Z0.200
G1 F900.000 E3.00000
G1 X83.144 Y96.606 F1080.000 E3.73009
G1 X83.144 Y97.157 E3.74796
G1 X99.116 Y113.129 E4.48019
G1 X99.314 Y113.879 E4.50533
G1 X83.144 Y97.709 E5.24666
G1 F900.000 E2.24666
G1 Z0.500
G92 E0
G1 X83.144 Y64.076 F7800.000
G1 Z0.200
G1 F900.000 E3.00000
G1 X103.560 Y84.492 F1080.000 E3.93596
G1 X102.843 Y84.326 E3.95981
G1 X83.144 Y64.628 E4.86290
G1 X83.144 Y65.179 E4.88078
G1 X102.260 Y84.295 E5.75715
G1 X101.773 Y84.359 E5.77308
G1 X83.144 Y65.730 E6.62712
G1 X83.144 Y66.282 E6.64499
G1 X101.340 Y84.478 E7.47919
G1 X100.950 Y84.639 E7.49287
G1 X83.144 Y66.833 E8.30920
G1 X83.144 Y67.384 E8.32707
G1 X100.597 Y84.837 E9.12719
G1 X100.285 Y85.077 E9.13994
G1 X83.144 Y67.936 E9.92577
G1 X83.144 Y68.487 E9.94364
G1 X99.989 Y85.332 E10.71591
G1 X99.750 Y85.644 E10.72865
G1 X83.144 Y69.038 E11.48995
G1 X83.144 Y69.590 E11.50783
G1 X99.510 Y85.956 E12.25815
G1 X99.347 Y86.345 E12.27180
G1 X83.144 Y70.141 E13.01465
G1 X83.144 Y70.693 E13.03253
G1 X99.186 Y86.735 E13.76798
G1 X99.111 Y87.211 E13.78361
G1 X83.144 Y71.244 E14.51563
G1 X83.144 Y71.795 E14.53350
G1 X99.061 Y87.712 E15.26323
G1 X99.145 Y88.347 E15.28399
G1 X83.144 Y72.347 E16.01754
G1 X83.144 Y72.898 E16.03542
G1 X99.448 Y89.202 E16.78288
G1 X99.303 Y89.608 E16.79686
G1 X83.144 Y73.449 E17.53765
G1 X83.144 Y74.001 E17.55552
G1 X98.895 Y89.752 E18.27763
G1 X98.488 Y89.896 E18.29164
G1 X83.144 Y74.552 E18.99507
G1 X83.144 Y75.103 E19.01294
G1 X98.080 Y90.039 E19.69768
G1 X97.672 Y90.183 E19.71169
G1 X83.144 Y75.655 E20.37774
G1 X83.144 Y76.206 E20.39561
G1 X97.294 Y90.356 E21.04434
G1 X96.967 Y90.581 E21.05720
G1 X83.144 Y76.757 E21.69092
G1 X83.144 Y77.309 E21.70879
G1 X96.640 Y90.805 E22.32753
G1 X96.313 Y91.029 E22.34039
G1 X83.144 Y77.860 E22.94412
G1 X83.144 Y78.411 E22.96200
G1 X95.986 Y91.253 E23.55074
G1 X95.659 Y91.478 E23.56359
G1 X83.144 Y78.963 E24.13734
G1 X83.144 Y79.514 E24.15521
G1 X95.332 Y91.702 E24.71396
G1 X95.010 Y91.932 E24.72677
G1 X83.144 Y80.065 E25.27077
G1 X83.144 Y80.617 E25.28864
G1 X94.756 Y92.229 E25.82098
G1 X94.501 Y92.526 E25.83366
G1 X83.144 Y81.168 E26.35434
G1 X83.144 Y81.719 E26.37221
G1 X94.247 Y92.823 E26.88124
G1 X93.993 Y93.120 E26.89392
G1 X83.144 Y82.271 E27.39128
G1 X83.144 Y82.822 E27.40915
G1 X93.738 Y93.417 E27.89486
G1 X93.484 Y93.714 E27.90753
G1 X83.144 Y83.373 E28.38158
G1 X83.144 Y83.925 E28.39945
G1 X93.230 Y94.011 E28.86184
G1 X93.027 Y94.359 E28.87491
G1 X83.144 Y84.476 E29.32800
G1 X83.144 Y85.028 E29.34588
G1 X92.848 Y94.732 E29.79078
G1 X92.670 Y95.105 E29.80419
G1 X83.144 Y85.579 E30.24091
G1 X83.144 Y86.130 E30.25878
G1 X92.492 Y95.478 E30.68733
G1 X92.313 Y95.851 E30.70074
G1 X83.144 Y86.682 E31.12110
G1 X83.144 Y87.233 E31.13897
G1 X92.135 Y96.224 E31.55116
G1 X91.956 Y96.597 E31.56457
G1 X83.144 Y87.784 E31.96857
G1 X83.144 Y88.336 E31.98645
G1 X91.840 Y97.032 E32.38514
G1 X91.754 Y97.497 E32.40046
G1 X83.144 Y88.887 E32.79519
G1 X83.144 Y89.438 E32.81306
G1 X91.667 Y97.962 E33.20380
G1 X91.580 Y98.426 E33.21913
G1 X83.144 Y89.990 E33.60590
G1 X83.144 Y90.541 E33.62377
G1 X91.494 Y98.891 E34.00656
G1 X91.407 Y99.356 E34.02189
G1 X83.144 Y91.092 E34.40071
G1 X83.144 Y91.644 E34.41858
G1 X91.395 Y99.895 E34.79686
G1 X91.441 Y100.493 E34.81629
G1 X83.144 Y92.195 E35.19669
G1 X83.144 Y92.746 E35.21457
G1 X91.488 Y101.090 E35.59709
G1 X91.534 Y101.688 E35.61652
G1 X83.144 Y93.298 E36.00116
G1 X83.144 Y93.849 E36.01904
G1 X91.580 Y102.286 E36.40581
G1 X91.814 Y103.071 E36.43236
G1 X83.144 Y94.400 E36.82985
G1 X83.144 Y94.952 E36.84772
G1 X92.115 Y103.923 E37.25898
G1 X92.415 Y104.774 E37.28827
G1 X83.144 Y95.503 E37.71331
G1 X83.144 Y96.054 E37.73118
G1 X93.198 Y106.109 E38.19212
G1 F900.000 E35.19212
G1 Z0.500
G92 E0
G1 X106.347 Y84.523 F7800.000
G1 Z0.200
G1 F900.000 E3.00000
G1 X83.144 Y61.320 F1080.000 E4.06373
G1 X83.619 Y61.244 E4.07934
G1 X105.703 Y83.328 E5.09177
G1 X105.060 Y82.133 E5.13575
G1 X84.171 Y61.244 E6.09342
G1 X84.722 Y61.244 E6.11130
G1 X104.417 Y80.939 E7.01420
G1 X103.774 Y79.744 E7.05819
G1 X85.273 Y61.244 E7.90633
G1 X85.825 Y61.244 E7.92420
G1 X103.131 Y78.549 E8.71758
G1 X102.487 Y77.355 E8.76156
G1 X86.376 Y61.244 E9.50017
G1 X86.927 Y61.244 E9.51804
G1 X101.844 Y76.160 E10.20189
G1 X101.201 Y74.966 E10.24587
G1 X87.479 Y61.244 E10.87495
G1 X88.030 Y61.244 E10.89282
G1 X100.558 Y73.771 E11.46713
G1 X99.914 Y72.577 E11.51112
G1 X88.582 Y61.244 E12.03066
G1 X89.133 Y61.244 E12.04854
G1 X99.856 Y71.967 E12.54014
G1 X99.856 Y71.416 E12.55802
G1 X89.684 Y61.244 E13.02435
G1 X90.236 Y61.244 E13.04222
G1 X99.856 Y70.864 E13.48328
G1 X99.856 Y70.313 E13.50115
G1 X90.787 Y61.244 E13.91693
G1 X91.338 Y61.244 E13.93480
G1 X99.856 Y69.762 E14.32530
